docs/showcase/rendered/render_a2s-cd1c34395bab8ae5453ddb9e84f03895de4f7580.svg

<svg xmlns="http://www.w3.org/2000/svg" width="208" height="192" version="1.1">
    <defs>
        <filter id="dsFilterNoBlur" width="150%" height="150%">
            <feOffset dx="3" dy="3" in="SourceGraphic" result="offOut"/>
            <feColorMatrix in="offOut" result="matrixOut" type="matrix" values="0.2 0 0 0 0 0 0.2 0 0 0 0 0 0.2 0 0 0 0 0 1 0"/>
            <feBlend in="SourceGraphic" in2="matrixOut" mode="normal"/>
        </filter>
        <filter id="dsFilter" width="150%" height="150%">
            <feOffset dx="3" dy="3" in="SourceGraphic" result="offOut"/>
            <feColorMatrix in="offOut" result="matrixOut" type="matrix" values="0.2 0 0 0 0 0 0.2 0 0 0 0 0 0.2 0 0 0 0 0 1 0"/>
            <feGaussianBlur in="matrixOut" result="blurOut" stdDeviation="3"/>
            <feBlend in="SourceGraphic" in2="blurOut" mode="normal"/>
        </filter>
        <marker id="iPointer" fill="#000" markerHeight="7" markerUnits="strokeWidth" markerWidth="8" orient="auto" refX="5" refY="5" viewBox="0 0 10 10">
            <path d="M10 0v10L0 5z"/>
        </marker>
        <marker id="Pointer" fill="#000" markerHeight="7" markerUnits="strokeWidth" markerWidth="8" orient="auto" refX="5" refY="5" viewBox="0 0 10 10">
            <path d="M0 0l10 5-10 5z"/>
        </marker>
    </defs>
    <g id="boxes" fill="none" stroke="#000" stroke-width="2">
        <g id="group0">
            <path id="path0" fill="#933" d="M4.5 8h179q10 0 10 10v86H4.5z" filter="url(#dsFilter)"/>
        </g>
        <g id="group1">
            <path id="path1" fill="#bbb" d="M22.5 46.4V72a18 4.8 0 0 0 36 0V46.4a18 4.8 0 0 0-36 0z" filter="url(#dsFilter)"/>
            <path id="path1" d="M22.5 46.4a18 4.8 0 0 0 36 0"/>
        </g>
        <g id="group1">
            <path id="path1" fill="#bbb" d="M76.5 46.4V72a18 4.8 0 0 0 36 0V46.4a18 4.8 0 0 0-36 0z" filter="url(#dsFilter)"/>
            <path id="path1" d="M76.5 46.4a18 4.8 0 0 0 36 0"/>
        </g>
        <g id="group1">
            <path id="path1" fill="#bbb" d="M130.5 46.4V72a18 4.8 0 0 0 36 0V46.4a18 4.8 0 0 0-36 0z" filter="url(#dsFilter)"/>
            <path id="path1" d="M130.5 46.4a18 4.8 0 0 0 36 0"/>
        </g>
        <g id="group14">
            <path id="path14" fill="#fff" d="M4.5 104h189v48h-179q-10 0-10-10z" filter="url(#dsFilter)"/>
            <text id="text0" x="35.1" y="140.8" fill="#000" stroke="none" font-family="Consolas,Monaco,Anonymous Pro,Anonymous,Bitstream Sans Mono,monospace" font-size="15.2">
                a
            </text>
            <text id="text1" x="89.1" y="140.8" fill="#000" stroke="none" font-family="Consolas,Monaco,Anonymous Pro,Anonymous,Bitstream Sans Mono,monospace" font-size="15.2">
                2
            </text>
            <text id="text2" x="107.1" y="140.8" fill="#000" stroke="none" font-family="Consolas,Monaco,Anonymous Pro,Anonymous,Bitstream Sans Mono,monospace" font-size="15.2">
                sketch
            </text>
        </g>
    </g>
    <g id="lines" fill="none" stroke="#000" stroke-width="2">
        <g id="group74">
            <path id="path74" marker-start="url(#iPointer)" d="M40.5 88v32"/>
        </g>
        <g id="group146">
            <path id="path146" marker-start="url(#iPointer)" d="M94.5 88v32"/>
        </g>
        <g id="group218">
            <path id="path218" marker-start="url(#iPointer)" d="M148.5 88v32"/>
        </g>
    </g>
</svg>

<svg xmlns="http://www.w3.org/2000/svg" width="208" height="192" version="1.1">
    <defs>
        <marker id="iPointer" fill="#000" markerHeight="7" markerUnits="strokeWidth" markerWidth="8" orient="auto" refX="5" refY="5" viewBox="0 0 10 10">
            <path d="M 10 0 L 10 10 L 0 5 z"/>
        </marker>
        <marker id="Pointer" fill="#000" markerHeight="7" markerUnits="strokeWidth" markerWidth="8" orient="auto" refX="5" refY="5" viewBox="0 0 10 10">
            <path d="M 0 0 L 10 5 L 0 10 z"/>
        </marker>
        <filter id="dsFilterNoBlur" width="150%" height="150%">
            <feOffset dx="3" dy="3" in="SourceGraphic" result="offOut"/>
            <feColorMatrix in="offOut" result="matrixOut" type="matrix" values="0.2 0 0 0 0 0 0.2 0 0 0 0 0 0.2 0 0 0 0 0 1 0"/>
            <feBlend in="SourceGraphic" in2="matrixOut" mode="normal"/>
        </filter>
        <filter id="dsFilter" width="150%" height="150%">
            <feOffset dx="3" dy="3" in="SourceGraphic" result="offOut"/>
            <feColorMatrix in="offOut" result="matrixOut" type="matrix" values="0.2 0 0 0 0 0 0.2 0 0 0 0 0 0.2 0 0 0 0 0 1 0"/>
            <feGaussianBlur in="matrixOut" result="blurOut" stdDeviation="3"/>
            <feBlend in="SourceGraphic" in2="blurOut" mode="normal"/>
        </filter>
    </defs>
    <g id="boxes" fill="none" stroke="#000" stroke-width="2">
        <g id="group0">
            <path id="path0" fill="#933" d="M 4.5 8 L 183.5 8 Q 193.5 8 193.5 18 L 193.5 104 L 4.5 104 Z" filter="url(#dsFilter)"/>
        </g>
        <g id="group1">
            <path id="path1" fill="#bbb" d="M 22.5 46.4 L 22.5 72 A 18 4.8 0 0 0 58.5 72 V 46.4 A 18 4.8 0 0 0 22.5 46.4 Z" filter="url(#dsFilter)"/>
            <path id="path1" d="M 22.5 46.4 A 18 4.8 0 0 0 58.5 46.4"/>
        </g>
        <g id="group1">
            <path id="path1" fill="#bbb" d="M 76.5 46.4 L 76.5 72 A 18 4.8 0 0 0 112.5 72 V 46.4 A 18 4.8 0 0 0 76.5 46.4 Z" filter="url(#dsFilter)"/>
            <path id="path1" d="M 76.5 46.4 A 18 4.8 0 0 0 112.5 46.4"/>
        </g>
        <g id="group1">
            <path id="path1" fill="#bbb" d="M 130.5 46.4 L 130.5 72 A 18 4.8 0 0 0 166.5 72 V 46.4 A 18 4.8 0 0 0 130.5 46.4 Z" filter="url(#dsFilter)"/>
            <path id="path1" d="M 130.5 46.4 A 18 4.8 0 0 0 166.5 46.4"/>
        </g>
        <g id="group14">
            <path id="path14" fill="#fff" d="M 4.5 104 L 193.5 104 L 193.5 152 L 14.5 152 Q 4.5 152 4.5 142 Z" filter="url(#dsFilter)"/>
            <text id="text0" x="35.1" y="140.8" fill="#000" stroke="none" font-family="Consolas,Monaco,Anonymous Pro,Anonymous,Bitstream Sans Mono,monospace" font-size="15.2">
                a
            </text>
            <text id="text1" x="89.1" y="140.8" fill="#000" stroke="none" font-family="Consolas,Monaco,Anonymous Pro,Anonymous,Bitstream Sans Mono,monospace" font-size="15.2">
                2
            </text>
            <text id="text2" x="107.1" y="140.8" fill="#000" stroke="none" font-family="Consolas,Monaco,Anonymous Pro,Anonymous,Bitstream Sans Mono,monospace" font-size="15.2">
                sketch
            </text>
        </g>
    </g>
    <g id="lines" fill="none" stroke="#000" stroke-width="2">
        <g id="group74">
            <path id="path74" marker-start="url(#iPointer)" d="M 40.5 88 L 40.5 104 L 40.5 120"/>
        </g>
        <g id="group146">
            <path id="path146" marker-start="url(#iPointer)" d="M 94.5 88 L 94.5 104 L 94.5 120"/>
        </g>
        <g id="group218">
            <path id="path218" marker-start="url(#iPointer)" d="M 148.5 88 L 148.5 104 L 148.5 120"/>
        </g>
    </g>
</svg>
